src/images/grpc.svg

<svg width="48px" height="17px" viewBox="452 738 48 17" version="1.1" xmlns="http://www.w3.org/2000/svg" xmlns:xlink="http://www.w3.org/1999/xlink">
    <!-- Generator: Sketch 41.1 (35376) - http://www.bohemiancoding.com/sketch -->
    <desc>Created with Sketch.</desc>
    <defs></defs>
    <path d="M469.89368,745.37592 L471.24944,745.37592 C471.67016,745.37592 472.0052,745.31976 472.25456,745.20744 C472.50392,745.09512 472.69472,744.93408 472.8272,744.72456 C472.95968,744.51504 473.0492,744.25656 473.096,743.9496 C473.1428,743.64264 473.16608,743.28696 473.16608,742.88256 C473.16608,742.47816 473.1428,742.12248 473.096,741.81552 C473.0492,741.50856 472.95176,741.24648 472.80392,741.02928 C472.65584,740.81208 472.4492,740.65104 472.18448,740.5464 C471.91952,740.44152 471.56888,740.3892 471.13256,740.3892 L469.89368,740.3892 L469.89368,745.37592 L469.89368,745.37592 Z M467.50928,738.1404 L471.34304,738.1404 C474.14816,738.1404 475.55072,739.77192 475.55072,743.0352 C475.55072,744.00312 475.3988,744.83472 475.09496,745.52952 C474.79112,746.22432 474.25736,746.78256 473.49368,747.204 L476.06504,754.8156 L473.54024,754.8156 L471.28184,747.5724 L469.89368,747.5724 L469.89368,754.8156 L467.50928,754.8156 L467.50928,738.1404 L467.50928,738.1404 Z M477.46712,738.1404 L481.0436,738.1404 C481.69832,738.1404 482.2748,738.22632 482.77328,738.39816 C483.272,738.56976 483.72392,738.87432 484.12928,739.3116 C484.5344,739.74864 484.81472,740.26008 484.97072,740.84568 C485.12672,741.43128 485.20448,742.22352 485.20448,743.22288 C485.20448,743.9568 485.14568,744.48192 485.05976,745.00512 C484.97432,745.52808 484.69736,746.43792 483.61064,747.05544 C482.93096,747.44136 481.95536,747.58056 481.06688,747.58056 L479.85152,747.58056 L479.85152,754.8156 L477.46688,754.8156 L477.46688,738.1404 L477.46712,738.1404 Z M479.85176,745.37592 L480.99704,745.37592 C481.48016,745.37592 481.85408,745.314 482.11904,745.1904 C482.384,745.0668 482.57888,744.89856 482.70368,744.68544 C482.82848,744.47232 482.90216,744.21504 482.92568,743.91264 C482.94896,743.61024 482.96072,743.27376 482.96072,742.90272 C482.96072,742.55928 482.94896,742.23288 482.92568,741.92376 C482.90216,741.61464 482.83208,741.3468 482.71544,741.12 C482.59832,740.8932 482.41544,740.71464 482.16608,740.58408 C481.91672,740.45376 481.55816,740.38848 481.09088,740.38848 L479.852,740.38848 L479.852,745.37592 L479.85176,745.37592 Z M494.55488,751.09176 C494.55488,751.6068 494.45744,752.0988 494.26256,752.56728 C494.06768,753.03552 493.79888,753.44544 493.45616,753.7968 C493.1132,754.14792 492.71192,754.4292 492.25232,754.63992 C491.79248,754.85064 491.2976,754.956 490.76768,754.956 C490.31576,754.956 489.85592,754.8936 489.38864,754.76856 C488.92112,754.64376 488.5004,754.4292 488.12624,754.1244 C487.75208,753.82008 487.4444,753.41808 487.20272,752.9184 C486.96128,752.41872 486.84056,751.78632 486.84056,751.02144 L486.84056,741.84096 C486.84056,741.29448 486.93416,740.78688 487.12112,740.31864 C487.30808,739.8504 487.57304,739.44432 487.91576,739.10088 C488.25896,738.75744 488.66792,738.48816 489.14312,738.2928 C489.61808,738.09768 490.1444,738 490.72088,738 C491.26616,738 491.7728,738.09768 492.24032,738.2928 C492.7076,738.48792 493.11296,738.76128 493.45568,739.11264 C493.7984,739.464 494.06744,739.88544 494.26208,740.37744 C494.45672,740.86944 494.5544,741.40392 494.5544,741.98184 L494.5544,742.91856 L492.16976,742.91856 L492.16976,742.12224 C492.16976,741.65376 492.03752,741.24792 491.77256,740.90448 C491.5076,740.5608 491.14928,740.3892 490.69736,740.3892 C490.10504,740.3892 489.71192,740.57256 489.5168,740.93952 C489.32216,741.30648 489.22472,741.77088 489.22472,742.33296 L489.22472,750.858 C489.22472,751.34208 489.32984,751.74792 489.54008,752.07576 C489.75032,752.4036 490.12832,752.56776 490.67408,752.56776 C490.8296,752.56776 490.99736,752.5404 491.17664,752.48568 C491.35568,752.43072 491.51936,752.3412 491.66744,752.21616 C491.81552,752.09136 491.93624,751.91976 492.02984,751.70112 C492.12344,751.48272 492.17,751.20936 492.17,750.88152 L492.17,750.06192 L494.55464,750.06192 L494.55464,751.09176 L494.55488,751.09176 Z M499.22648,746.45688 C499.22648,745.84824 498.73424,745.3548 498.12728,745.3548 L492.17264,745.3548 L492.17264,747.5592 L497.02784,747.5592 L497.02784,750.01776 L496.28,750.01776 L498.14,752.646 L500,750.01752 L499.22648,750.01752 L499.22648,746.45688 L499.22648,746.45688 Z M457.41104,747.58032 L457.41104,750.88104 C457.41104,751.56792 457.52792,752.16528 457.76168,752.67264 C457.99544,753.18 458.30336,753.60168 458.6852,753.93744 C459.06704,754.2732 459.49544,754.52688 459.97088,754.69872 C460.44632,754.87056 460.92536,754.95624 461.40848,754.95624 C461.8916,754.95624 462.37088,754.87056 462.84608,754.69872 C463.32128,754.52688 463.74992,754.27344 464.13176,753.93744 C464.5136,753.60192 464.82128,753.18024 465.05504,752.67264 C465.2888,752.16528 465.40568,751.56792 465.40568,750.88104 L465.40568,745.38048 L461.13344,745.374 L461.12792,747.5796 L463.02152,747.5796 L463.02152,750.88104 C463.02152,751.45872 462.86168,751.88424 462.54224,752.15736 C462.2228,752.43048 461.84504,752.56728 461.40848,752.56728 C460.97216,752.56728 460.59416,752.43048 460.27472,752.15736 C459.95528,751.884 459.79544,751.45872 459.79544,750.88104 L459.79544,742.07496 C459.79544,741.49728 459.95528,741.07176 460.27472,740.79864 C460.59416,740.52552 460.97216,740.38872 461.40848,740.38872 C461.8448,740.38872 462.2228,740.52528 462.54224,740.79864 C462.86192,741.072 463.02152,741.49728 463.02152,742.07496 L463.02152,742.91808 L465.40592,742.91808 L465.40592,742.07496 C465.40592,741.40368 465.28904,740.81016 465.05528,740.29488 C464.82152,739.77984 464.51384,739.35432 464.132,739.01856 C463.75016,738.6828 463.32176,738.42912 462.84632,738.25728 C462.37064,738.08592 461.89136,738 461.40824,738 C460.92512,738 460.44608,738.08592 459.97064,738.25752 C459.49544,738.42936 459.0668,738.68304 458.68496,739.0188 C458.30312,739.35432 457.9952,739.77984 457.76144,740.29512 C457.52768,740.8104 457.4108,741.40368 457.4108,742.0752 L457.4108,745.37592 L454.97192,745.37592 L454.97192,742.91736 L455.72,742.91736 L453.86,740.28912 L452,742.91736 L452.77352,742.91736 L452.77352,746.478 C452.77352,747.08664 453.26552,747.58032 453.87272,747.58032 L457.41104,747.58032 L457.41104,747.58032 L457.41104,747.58032 Z" id="grpc" stroke="none" fill="#F64242" fill-rule="evenodd"></path>
</svg>

<svg width="48" height="17" viewBox="452 738 48 17" xmlns="http://www.w3.org/2000/svg"><path d="M469.894 745.376h1.355c.421 0 .756-.056 1.006-.169.249-.112.44-.273.572-.482.133-.21.222-.468.269-.775.047-.307.07-.663.07-1.067 0-.405-.023-.76-.07-1.067a1.882 1.882 0 0 0-.292-.787 1.31 1.31 0 0 0-.62-.483c-.264-.104-.615-.157-1.051-.157h-1.24v4.987zm-2.385-7.236h3.834c2.805 0 4.208 1.632 4.208 4.895 0 .968-.152 1.8-.456 2.495-.304.694-.838 1.253-1.601 1.674l2.571 7.612h-2.525l-2.258-7.244h-1.388v7.244h-2.385V738.14zm9.958 0h3.577c.654 0 1.23.086 1.73.258.498.172.95.476 1.355.914.405.437.686.948.842 1.534.156.585.233 1.378.233 2.377 0 .734-.058 1.259-.144 1.782-.086.523-.363 1.433-1.45 2.05-.679.386-1.655.526-2.543.526h-1.215v7.235h-2.385V738.14zm2.385 7.236h1.145c.483 0 .857-.062 1.122-.186.265-.123.46-.291.585-.505.124-.213.198-.47.222-.772.023-.303.035-.64.035-1.01 0-.344-.012-.67-.035-.98a2.09 2.09 0 0 0-.21-.803 1.247 1.247 0 0 0-.55-.536c-.25-.13-.608-.196-1.075-.196h-1.239v4.988zm14.703 5.716a3.874 3.874 0 0 1-1.099 2.705 3.992 3.992 0 0 1-1.204.843 3.52 3.52 0 0 1-1.484.316 5.32 5.32 0 0 1-1.38-.187 3.34 3.34 0 0 1-1.262-.645c-.374-.304-.682-.706-.923-1.206-.242-.5-.362-1.132-.362-1.897v-9.18c0-.547.093-1.054.28-1.522.187-.469.452-.875.795-1.218a3.703 3.703 0 0 1 1.227-.808 4.116 4.116 0 0 1 1.578-.293c.545 0 1.052.098 1.52.293a3.634 3.634 0 0 1 2.021 2.084c.195.492.292 1.027.292 1.605v.937h-2.384v-.797c0-.468-.132-.874-.397-1.218-.265-.343-.624-.515-1.076-.515-.592 0-.985.184-1.18.55-.195.367-.292.832-.292 1.394v8.525c0 .484.105.89.315 1.218.21.328.588.492 1.134.492.156 0 .323-.028.503-.082.179-.055.342-.145.49-.27.149-.125.27-.296.363-.515.093-.218.14-.492.14-.82v-.82h2.385v1.03zm4.671-4.635a1.1 1.1 0 0 0-1.099-1.102h-5.954v2.204h4.855v2.459h-.748l1.86 2.628 1.86-2.628h-.774v-3.561zm-41.815 1.123v3.301c0 .687.117 1.284.35 1.792.234.507.542.929.924 1.264.382.336.81.59 1.286.762.475.172.954.257 1.437.257a4.2 4.2 0 0 0 1.438-.257 3.977 3.977 0 0 0 1.286-.762c.382-.335.69-.757.923-1.264.234-.508.35-1.105.35-1.792v-5.5l-4.272-.007-.005 2.206h1.894v3.301c0 .578-.16 1.003-.48 1.276-.32.273-.697.41-1.134.41-.436 0-.814-.137-1.133-.41-.32-.273-.48-.698-.48-1.276v-8.806c0-.578.16-1.003.48-1.276.32-.273.697-.41 1.133-.41.437 0 .815.136 1.134.41.32.273.48.698.48 1.276v.843h2.384v-.843c0-.671-.117-1.265-.35-1.78a3.715 3.715 0 0 0-.924-1.276 3.978 3.978 0 0 0-1.286-.762 4.216 4.216 0 0 0-1.438-.257c-.483 0-.962.086-1.437.258a3.98 3.98 0 0 0-1.286.76 3.71 3.71 0 0 0-.924 1.277c-.233.515-.35 1.109-.35 1.78v3.3h-2.44v-2.458h.749l-1.86-2.628-1.86 2.628h.774v3.561a1.1 1.1 0 0 0 1.099 1.102h3.538z" fill="#F64242" fill-rule="evenodd"/></svg>
